icons/linear-ele-location-cordinate.svg

<svg xmlns="http://www.w3.org/2000/svg" width="32px" height="32px" viewBox="0 0 32 32" version="1.1">
    <title>linear-ele-location-cordinate</title>
    <g id="linear-ele-location-cordinate" stroke-width="1" fill-rule="evenodd">
        <path d="M16,2 C20.418278,2 24,5.581722 24,10 C24,14.0792885 20.9468043,17.445465 17.0009551,17.9379871 L17,23 L24,23 C26.209139,23 28,24.790861 28,27 L28,29 C28,29.5522847 27.5522847,30 27,30 L5,30 C4.44771525,30 4,29.5522847 4,29 L4,27 C4,24.790861 5.790861,23 8,23 L15,23 L15.0000487,17.9381123 C11.0537136,17.4460359 8,14.0796344 8,10 C8,5.581722 11.581722,2 16,2 Z M24,25 L8,25 C6.8954305,25 6,25.8954305 6,27 L6,28 L26,28 L26,27 C26,25.9456382 25.1841222,25.0818349 24.1492623,25.0054857 L24,25 Z M16,4 C12.6862915,4 10,6.6862915 10,10 C10,13.3137085 12.6862915,16 16,16 C19.3137085,16 22,13.3137085 22,10 C22,6.6862915 19.3137085,4 16,4 Z" id="&#24418;&#29366;" fill-rule="nonzero" />
    </g>
</svg>

<svg xmlns="http://www.w3.org/2000/svg" viewBox="0 0 32 32"><path fill="currentColor" d="M16 2a8 8 0 0 1 1.001 15.938L17 23h7a4 4 0 0 1 4 4v2a1 1 0 0 1-1 1H5a1 1 0 0 1-1-1v-2a4 4 0 0 1 4-4h7v-5.062A8.001 8.001 0 0 1 16 2m8 23H8a2 2 0 0 0-2 2v1h20v-1a2 2 0 0 0-1.85-1.995zM16 4a6 6 0 1 0 0 12 6 6 0 0 0 0-12"/></svg>
